;FLAVOR:Marlin
;TIME:19400
;Filament used: 14.0059m
;Layer height: 0.2
;MINX:21.4
;MINY:21.359
;MINZ:0.3
;MAXX:188.6
;MAXY:188.745
;MAXZ:13.575
;Generated with Cura_SteamEngine 5.3.0
M82 ;absolute extrusion mode
;Profil Homepage: https://github.com/NilsRo/Cura_Anycubic_MegaS_Profile

;Slicer Information - (Support for OctoPrint Slicer Estimator)
;Slicer info:material_guid;0ff92885-617b-4144-a03c-9989872454bc
;Slicer info:material_id;generic_pla_175
;Slicer info:material_brand;Generic
;Slicer info:material_name;PLA
;Slicer info:filament_cost;[0.0]
;Slicer info:material_bed_temperature;60
;Slicer info:material_bed_temperature_layer_0;60
;Slicer info:material_print_temperature;200
;Slicer info:material_print_temperature_layer_0;205
;Slicer info:material_flow;100
;Slicer info:layer_height;0.2
;Slicer info:machine_nozzle_size;0.4
;Slicer info:wall_thickness;1.2000000000000002
;Slicer info:speed_print;50.0
;Slicer info:speed_topbottom;25.0
;Slicer info:travel_speed;100.0
;Slicer info:support;0
;Slicer info:retraction_speed;30
;Slicer info:retraction_amount;6
;Slicer info:layer_height;0.2
;Slicer info:infill_pattern;grid
;Slicer info:infill_sparse_density;25
;Slicer info:cool_fan_enabled;True
;Slicer info:cool_fan_speed;100
;Slicer info:sliced_at;Sat 19-08-2023 01:15:28
G21                                        ; metric values 
G90                                        ; absolute positioning 
M82                                        ; set extruder to absolute mode 
M900 K0                                    ; disable lin. adv. if not set in GCODE
M107                                       ; start with the fan off 
M140 S60   ; Start heating the bed 
G4 S60                                     ; wait 1 minute 
M104 S205 ; start heating the hot end 
M190 S60   ; wait for bed 
M109 S205 ; wait for hotend 
M300 S1000 P500                            ; BEEP heating done 
G28 X0 Y10 Z0                              ; move X/Y to min endstops 
M420 S1                                    ; Enable leveling 
M420 Z2.0                                  ; Set leveling fading height to 2 mm 
G0 Z0.15                                   ; lift nozzle a bit 
G92 E0                                     ; zero the extruded length 
G1 X50 E20 F500                            ; Extrude 20mm of filament in a 5cm line. 
G92 E0                                     ; zero the extruded length again 
G1 E-2 F500                                ; Retract a little 
G1 X50 F500                                ; wipe away from the filament line
G1 X100 F9000                              ; Quickly wipe away from the filament line
G92 E0
G92 E0
G1 F1800 E-6
;LAYER_COUNT:68
;LAYER:0
M106 S76.5
M205 X10 Y10
G1 F480 Z0.375
G0 F6000 X44.946 Y36.952 Z0.375
M205 X8 Y8
;TYPE:SKIRT
G1 F480 Z0.3
G1 F1800 E0
G1 F1200 X45.363 Y36.46 E0.03218
G1 X45.909 Y35.968 E0.06884
G1 X46.315 Y35.651 E0.09454
G1 X46.847 Y35.287 E0.1267
G1 X47.453 Y34.976 E0.16068
G1 X47.923 Y34.773 E0.18623
G1 X48.53 Y34.555 E0.2184
G1 X49.24 Y34.401 E0.25465
G1 X49.793 Y34.321 E0.28253
G1 X50.494 Y34.259 E0.31764
G1 X68.028 Y34.258 E1.19241
G1 X70.706 Y34.22 E1.32603
G1 X73.379 Y34.107 E1.45951
G1 X76.054 Y33.917 E1.5933
G1 X78.744 Y33.65 E1.72816
G1 X81.394 Y33.311 E1.86145
G1 X84.057 Y32.893 E1.99593
G1 X86.673 Y32.407 E2.12868
G1 X89.259 Y31.852 E2.26063
G1 X91.905 Y31.201 E2.39658
G1 X94.503 Y30.487 E2.531
G1 X97.04 Y29.71 E2.66337
G1 X99.591 Y28.849 E2.7977
G1 X102.093 Y27.927 E2.93073
G1 X104.63 Y26.908 E3.06713
G1 X107.024 Y25.867 E3.19737
G1 X109.49 Y24.71 E3.33327
G1 X111.907 Y23.493 E3.46827
G1 X113.646 Y22.566 E3.56659
G1 X114.366 Y22.256 E3.6057
G1 X114.973 Y22.038 E3.63788
G1 X115.672 Y21.887 E3.67355
G1 X116.188 Y21.812 E3.69957
G1 X116.831 Y21.759 E3.73176
G1 X117.537 Y21.793 E3.76702
G1 X118.044 Y21.852 E3.79248
G1 X118.679 Y21.966 E3.82467
G1 X119.389 Y22.195 E3.86189
G1 X119.912 Y22.406 E3.89003
G1 X120.424 Y22.646 E3.91824
G1 X121.506 Y23.226 E3.97948
G1 X123.917 Y24.476 E4.11497
G1 X126.36 Y25.655 E4.25031
G1 X128.777 Y26.74 E4.38248
G1 X131.306 Y27.788 E4.51906
G1 X133.759 Y28.726 E4.65008
G1 X136.317 Y29.622 E4.78531
G1 X138.852 Y30.429 E4.91803
G1 X141.435 Y31.173 E5.05214
G1 X144.026 Y31.841 E5.18563
G1 X146.682 Y32.444 E5.32151
G1 X149.283 Y32.958 E5.45378
G1 X151.909 Y33.402 E5.58665
G1 X154.584 Y33.775 E5.7214
G1 X157.227 Y34.068 E5.85407
G1 X160.052 Y34.305 E5.9955
G1 X160.708 Y34.391 E6.02851
G1 X161.339 Y34.525 E6.0607
G1 X161.872 Y34.704 E6.08875
G1 X162.36 Y34.898 E6.11495
G1 X162.943 Y35.173 E6.14711
G1 X163.549 Y35.563 E6.18306
G1 X163.967 Y35.875 E6.20908
G1 X164.459 Y36.292 E6.24126
G1 X164.954 Y36.84 E6.2781
G1 X165.29 Y37.27 E6.30533
G1 X165.792 Y38.046 E6.35144
G1 X166.996 Y40.329 E6.4802
G1 X168.326 Y42.688 E6.61531
G1 X169.708 Y44.985 E6.74905
G1 X171.162 Y47.254 E6.8835
G1 X172.668 Y49.466 E7.01701
G1 X174.236 Y51.631 E7.15037
G1 X175.867 Y53.755 E7.28398
G1 X177.564 Y55.842 E7.41817
G1 X179.286 Y57.842 E7.54984
G1 X181.125 Y59.856 E7.68591
G1 X182.973 Y61.771 E7.81868
G1 X185.722 Y64.431 E8.00952
G1 X186.533 Y65.186 E8.0648
G1 X186.977 Y65.654 E8.09699
G1 X187.36 Y66.173 E8.12917
G1 X187.675 Y66.735 E8.16131
G1 X187.918 Y67.332 E8.19347
G1 X188.086 Y67.955 E8.22566
G1 X188.2 Y68.935 E8.27488
G1 X188.2 Y140.332 E11.83689
G1 X188.19 Y141.054 E11.87292
G1 X188.141 Y141.697 E11.90509
G1 X188.013 Y142.329 E11.93726
G1 X187.807 Y142.94 E11.96943
G1 X187.528 Y143.521 E12.00158
G1 X187.179 Y144.063 E12.03374
G1 X186.538 Y144.784 E12.08188
G1 X184.657 Y146.54 E12.21026
G1 X182.74 Y148.429 E12.34453
G1 X180.899 Y150.351 E12.47731
G1 X179.087 Y152.35 E12.61191
G1 X177.36 Y154.372 E12.74458
G1 X175.66 Y156.475 E12.87949
G1 X174.052 Y158.588 E13.01196
G1 X172.474 Y160.786 E13.14695
G1 X170.983 Y162.99 E13.27971
G1 X169.547 Y165.251 E13.41334
G1 X168.155 Y167.585 E13.54892
G1 X166.861 Y169.899 E13.68119
G1 X166.406 Y170.776 E13.73048
G1 X165.825 Y171.863 E13.79197
G1 X165.402 Y172.527 E13.83125
G1 X165.078 Y172.96 E13.85823
G1 X164.661 Y173.452 E13.89041
G1 X164.115 Y173.944 E13.92708
G1 X163.709 Y174.261 E13.95277
G1 X163.177 Y174.625 E13.98493
G1 X162.571 Y174.936 E14.01892
G1 X162.101 Y175.139 E14.04446
G1 X161.494 Y175.357 E14.07664
G1 X160.784 Y175.511 E14.11288
G1 X160.231 Y175.591 E14.14076
G1 X159.53 Y175.653 E14.17587
G1 X142.294 Y175.654 E15.03577
G1 X139.616 Y175.692 E15.16939
G1 X136.943 Y175.805 E15.30287
G1 X134.268 Y175.995 E15.43666
G1 X131.578 Y176.262 E15.57153
G1 X128.928 Y176.601 E15.70481
G1 X126.265 Y177.019 E15.8393
G1 X123.649 Y177.505 E15.97204
G1 X121.063 Y178.06 E16.104
G1 X118.417 Y178.711 E16.23994
G1 X115.819 Y179.425 E16.37436
G1 X113.282 Y180.202 E16.50674
G1 X110.731 Y181.063 E16.64106
G1 X108.229 Y181.985 E16.77409
G1 X105.692 Y183.004 E16.91049
G1 X103.298 Y184.045 E17.04073
G1 X100.832 Y185.202 E17.17663
G1 X98.412 Y186.421 E17.31182
G1 X96.314 Y187.544 E17.43054
G1 X95.612 Y187.846 E17.46866
G1 X95.006 Y188.064 E17.50079
G1 X94.308 Y188.215 E17.53642
G1 X93.789 Y188.291 E17.56259
G1 X93.147 Y188.345 E17.59473
G1 X92.437 Y188.311 E17.6302
G1 X91.928 Y188.252 E17.65576
G1 X91.294 Y188.139 E17.68789
G1 X90.577 Y187.907 E17.72549
G1 X90.058 Y187.697 E17.75342
G1 X89.539 Y187.453 E17.78203
G1 X88.436 Y186.858 E17.84456
G1 X86.028 Y185.603 E17.98003
G1 X83.618 Y184.432 E18.11371
G1 X81.173 Y183.328 E18.24755
G1 X78.69 Y182.292 E18.38177
G1 X76.185 Y181.327 E18.5157
G1 X73.669 Y180.44 E18.6488
G1 X71.108 Y179.617 E18.783
G1 X68.543 Y178.872 E18.91626
G1 X65.933 Y178.193 E19.05081
G1 X63.301 Y177.588 E19.18554
G1 X60.717 Y177.072 E19.317
G1 X58.032 Y176.612 E19.45291
G1 X55.414 Y176.24 E19.58483
G1 X52.73 Y175.935 E19.7196
G1 X49.982 Y175.7 E19.8572
G1 X49.288 Y175.607 E19.89213
G1 X48.658 Y175.472 E19.92428
G1 X47.872 Y175.206 E19.96568
G1 X47.083 Y174.83 E20.00928
G1 X46.499 Y174.454 E20.04393
G1 X46.071 Y174.136 E20.07054
G1 X45.578 Y173.72 E20.10272
G1 X45.075 Y173.164 E20.14012
G1 X44.742 Y172.738 E20.1671
G1 X44.24 Y171.963 E20.21317
G1 X43.002 Y169.616 E20.34555
G1 X41.681 Y167.275 E20.47966
G1 X40.309 Y164.997 E20.61233
G1 X38.855 Y162.729 E20.74673
G1 X37.334 Y160.498 E20.88144
G1 X35.775 Y158.346 E21.01402
G1 X34.153 Y156.234 E21.14688
G1 X32.435 Y154.122 E21.2827
G1 X30.691 Y152.101 E21.41588
G1 X28.896 Y150.134 E21.54874
G1 X27.018 Y148.191 E21.68355
G1 X24.332 Y145.592 E21.87002
G1 X23.467 Y144.787 E21.92897
G1 X23.023 Y144.319 E21.96116
G1 X22.641 Y143.8 E21.99331
G1 X22.325 Y143.238 E22.02547
G1 X22.082 Y142.641 E22.05763
G1 X21.915 Y142.019 E22.08976
G1 X21.8 Y141.039 E22.13899
G1 X21.801 Y69.619 E25.70215
G1 X21.811 Y68.916 E25.73722
G1 X21.86 Y68.273 E25.7694
G1 X21.988 Y67.641 E25.80157
G1 X22.193 Y67.03 E25.83372
G1 X22.473 Y66.449 E25.8659
G1 X22.822 Y65.908 E25.89802
G1 X23.462 Y65.188 E25.94608
G1 X25.33 Y63.444 E26.07357
G1 X27.247 Y61.555 E26.20785
G1 X29.104 Y59.617 E26.34175
G1 X30.872 Y57.664 E26.47319
G1 X32.638 Y55.6 E26.60871
G1 X34.33 Y53.505 E26.74306
G1 X35.936 Y51.395 E26.87535
G1 X37.513 Y49.199 E27.01023
G1 X39.004 Y46.994 E27.14303
G1 X40.447 Y44.722 E27.27731
G1 X41.827 Y42.41 E27.41164
G1 X43.127 Y40.085 E27.54454
G1 X43.688 Y39.005 E27.60525
G1 X44.199 Y38.049 E27.65933
G1 X44.622 Y37.385 E27.69861
G1 X44.946 Y36.952 E27.72559
M205 X10 Y10
G0 F6000 X44.641 Y36.693
M205 X8 Y8
G1 F1200 X45.058 Y36.201 E27.75777
G1 X45.641 Y35.671 E27.79708
G1 X46.089 Y35.321 E27.82544
G1 X46.664 Y34.931 E27.8601
G1 X47.27 Y34.62 E27.89409
G1 X47.764 Y34.406 E27.92095
G1 X48.445 Y34.164 E27.957
G1 X49.155 Y34.01 E27.99325
G1 X49.736 Y33.925 E28.02254
G1 X50.494 Y33.859 E28.0605
G1 X68.022 Y33.858 E28.93498
G1 X70.689 Y33.82 E29.06805
G1 X73.362 Y33.707 E29.20152
G1 X76.019 Y33.518 E29.33442
G1 X78.693 Y33.253 E29.46848
G1 X81.343 Y32.914 E29.60176
G1 X83.995 Y32.498 E29.73569
G1 X86.587 Y32.016 E29.86722
G1 X89.175 Y31.461 E29.99927
G1 X91.799 Y30.815 E30.13409
G1 X94.397 Y30.102 E30.2685
G1 X96.912 Y29.331 E30.39974
G1 X99.463 Y28.47 E30.53406
G1 X101.944 Y27.556 E30.66597
G1 X104.47 Y26.541 E30.80179
G1 X106.864 Y25.5 E30.93203
G1 X109.32 Y24.348 E31.06737
G1 X111.727 Y23.136 E31.20182
G1 X113.458 Y22.213 E31.29969
G1 X114.231 Y21.88 E31.34168
G1 X114.889 Y21.647 E31.37651
G1 X115.614 Y21.491 E31.4135
G1 X116.155 Y21.413 E31.44077
G1 X116.85 Y21.359 E31.47555
G1 X117.556 Y21.393 E31.51082
G1 X118.115 Y21.458 E31.53889
G1 X118.802 Y21.585 E31.57375
G1 X119.512 Y21.814 E31.61097
G1 X120.082 Y22.044 E31.64163
G1 X120.613 Y22.293 E31.67089
G1 X121.695 Y22.873 E31.73214
G1 X124.091 Y24.116 E31.8668
G1 X126.524 Y25.29 E32.00158
G1 X128.93 Y26.37 E32.13315
G1 X131.449 Y27.414 E32.26919
G1 X133.897 Y28.35 E32.39995
G1 X136.449 Y29.244 E32.53485
G1 X138.969 Y30.047 E32.6668
G1 X141.541 Y30.787 E32.80033
G1 X144.115 Y31.451 E32.93295
G1 X146.771 Y32.054 E33.06883
G1 X149.356 Y32.565 E33.20029
G1 X151.964 Y33.006 E33.33225
G1 X154.628 Y33.377 E33.46644
G1 X157.268 Y33.67 E33.59896
G1 X160.104 Y33.908 E33.74095
G1 X160.76 Y33.994 E33.77396
G1 X161.422 Y34.134 E33.80771
G1 X162.02 Y34.332 E33.83914
G1 X162.531 Y34.536 E33.86659
G1 X163.114 Y34.811 E33.89875
G1 X163.788 Y35.242 E33.93866
G1 X164.226 Y35.57 E33.96596
G1 X164.718 Y35.987 E33.99814
G1 X165.251 Y36.572 E34.03762
G1 X165.626 Y37.053 E34.06805
G1 X166.146 Y37.859 E34.11591
G1 X167.349 Y40.142 E34.24465
G1 X168.669 Y42.482 E34.37869
G1 X170.045 Y44.769 E34.51185
G1 X171.493 Y47.029 E34.64575
G1 X172.992 Y49.231 E34.77865
G1 X174.553 Y51.387 E34.91145
G1 X176.179 Y53.505 E35.04466
G1 X177.867 Y55.581 E35.17815
G1 X179.581 Y57.572 E35.30922
G1 X181.413 Y59.578 E35.44476
G1 X183.261 Y61.493 E35.57753
G1 X185.995 Y64.138 E35.76731
G1 X186.806 Y64.893 E35.82259
G1 X187.299 Y65.416 E35.85845
G1 X187.682 Y65.935 E35.89063
G1 X188.024 Y66.539 E35.92526
G1 X188.304 Y67.228 E35.96236
G1 X188.483 Y67.909 E35.99749
G1 X188.6 Y68.935 E36.04901
G1 X188.6 Y140.338 E39.61132
G1 X188.589 Y141.084 E39.64854
G1 X188.54 Y141.727 E39.68072
G1 X188.392 Y142.457 E39.71788
G1 X188.168 Y143.113 E39.75246
G1 X187.889 Y143.694 E39.78462
G1 X187.478 Y144.329 E39.82235
G1 X186.837 Y145.05 E39.87048
G1 X184.938 Y146.825 E40.00017
G1 X183.021 Y148.714 E40.13444
G1 X181.188 Y150.628 E40.26665
G1 X179.383 Y152.619 E40.40073
G1 X177.664 Y154.632 E40.53279
G1 X175.971 Y156.726 E40.66714
G1 X174.377 Y158.821 E40.79847
G1 X172.799 Y161.019 E40.93346
G1 X171.321 Y163.204 E41.06507
G1 X169.891 Y165.456 E41.19816
G1 X168.499 Y167.79 E41.33374
G1 X167.21 Y170.094 E41.46545
G1 X166.759 Y170.965 E41.51439
G1 X166.178 Y172.052 E41.57588
G1 X165.722 Y172.767 E41.61819
G1 X165.383 Y173.219 E41.64638
G1 X164.966 Y173.711 E41.67855
G1 X164.383 Y174.241 E41.71786
G1 X163.935 Y174.591 E41.74622
G1 X163.36 Y174.981 E41.78089
G1 X162.754 Y175.292 E41.81487
G1 X162.26 Y175.506 E41.84173
G1 X161.579 Y175.748 E41.87779
G1 X160.869 Y175.902 E41.91403
G1 X160.288 Y175.987 E41.94333
G1 X159.53 Y176.053 E41.98129
G1 X142.3 Y176.054 E42.84089
G1 X139.633 Y176.092 E42.97397
G1 X136.96 Y176.205 E43.10744
G1 X134.303 Y176.394 E43.24033
G1 X131.629 Y176.659 E43.37439
G1 X128.979 Y176.998 E43.50768
G1 X126.327 Y177.414 E43.64161
G1 X123.733 Y177.896 E43.77324
G1 X121.147 Y178.451 E43.90519
G1 X118.523 Y179.097 E44.04001
G1 X115.925 Y179.81 E44.17442
G1 X113.41 Y180.581 E44.30566
G1 X110.859 Y181.442 E44.43998
G1 X108.378 Y182.356 E44.57189
G1 X105.852 Y183.371 E44.70771
G1 X103.458 Y184.412 E44.83795
G1 X101.002 Y185.564 E44.97329
G1 X98.601 Y186.774 E45.10742
G1 X96.503 Y187.897 E45.22615
G1 X95.747 Y188.222 E45.2672
G1 X95.091 Y188.455 E45.30193
G1 X94.366 Y188.611 E45.33893
G1 X93.823 Y188.69 E45.3663
G1 X93.128 Y188.745 E45.40109
G1 X92.418 Y188.711 E45.43655
G1 X91.858 Y188.646 E45.46468
G1 X91.171 Y188.52 E45.49952
G1 X90.454 Y188.288 E45.53712
G1 X89.888 Y188.059 E45.56758
G1 X89.349 Y187.805 E45.59731
G1 X88.251 Y187.213 E45.65954
G1 X85.843 Y185.958 E45.79501
G1 X83.453 Y184.797 E45.92758
G1 X81.008 Y183.693 E46.06142
G1 X78.536 Y182.661 E46.19506
G1 X76.041 Y181.7 E46.32845
G1 X73.547 Y180.821 E46.46038
G1 X70.986 Y179.998 E46.59458
G1 X68.436 Y179.257 E46.72707
G1 X65.843 Y178.583 E46.86073
G1 X63.211 Y177.978 E46.99547
G1 X60.649 Y177.466 E47.12581
G1 X57.976 Y177.008 E47.26111
G1 X55.358 Y176.636 E47.39304
G1 X52.696 Y176.334 E47.5267
G1 X49.948 Y176.099 E47.66429
G1 X49.204 Y175.998 E47.70175
G1 X48.53 Y175.851 E47.73617
G1 X47.744 Y175.585 E47.77757
G1 X46.866 Y175.166 E47.8261
G1 X46.26 Y174.775 E47.86208
G1 X45.813 Y174.442 E47.88989
G1 X45.32 Y174.026 E47.92208
G1 X44.778 Y173.432 E47.96219
G1 X44.406 Y172.955 E47.99237
G1 X43.886 Y172.15 E48.04018
G1 X42.648 Y169.803 E48.17257
G1 X41.333 Y167.472 E48.30609
G1 X39.966 Y165.203 E48.43825
G1 X38.518 Y162.945 E48.57207
G1 X37.003 Y160.723 E48.70624
G1 X35.451 Y158.581 E48.83821
G1 X33.836 Y156.478 E48.9705
G1 X32.132 Y154.383 E49.10523
G1 X30.388 Y152.362 E49.23841
G1 X28.608 Y150.412 E49.37013
G1 X26.73 Y148.469 E49.50495
G1 X24.059 Y145.885 E49.69036
G1 X23.194 Y145.08 E49.74931
G1 X22.701 Y144.556 E49.7852
G1 X22.292 Y143.996 E49.8198
G1 X21.976 Y143.434 E49.85196
G1 X21.696 Y142.745 E49.88907
G1 X21.518 Y142.066 E49.92409
G1 X21.4 Y141.039 E49.97566
G1 X21.401 Y69.613 E53.53912
G1 X21.412 Y68.886 E53.5754
G1 X21.461 Y68.243 E53.60757
G1 X21.596 Y67.562 E53.6422
G1 X21.833 Y66.856 E53.67936
G1 X22.137 Y66.232 E53.71399
G1 X22.523 Y65.642 E53.74916
G1 X23.163 Y64.922 E53.79722
G1 X25.049 Y63.159 E53.92602
G1 X26.966 Y61.27 E54.0603
G1 X28.815 Y59.34 E54.19364
G1 X30.575 Y57.396 E54.32447
G1 X32.334 Y55.34 E54.45946
G1 X34.019 Y53.254 E54.59324
G1 X35.611 Y51.162 E54.7244
G1 X37.188 Y48.966 E54.85928
G1 X38.666 Y46.78 E54.99093
G1 X40.109 Y44.508 E55.12521
G1 X41.484 Y42.205 E55.25903
G1 X42.778 Y39.89 E55.39134
G1 X43.335 Y38.816 E55.4517
G1 X43.846 Y37.86 E55.50578
G1 X44.302 Y37.145 E55.54809
G1 X44.641 Y36.693 E55.57628
M205 X10 Y10
G1 F1800 E49.57628
G1 F480 Z0.375
;MESH:BASE v14.3mf(3)
G0 F6000 X49.567 Y41.2 Z0.375
M205 X8 Y8
;TYPE:WALL-INNER
G1 F480 Z0.3
G1 F1800 E55.57628
G1 F1227.6 X49.568 Y41.718 E55.60154
M205 X10 Y10
