;FLAVOR:Marlin
;TIME:5998
;Filament used: 4.26358m
;Layer height: 0.2
;MINX:23.9
;MINY:66.888
;MINZ:0.3
;MAXX:186.1
;MAXY:143.087
;MAXZ:6.775
;Generated with Cura_SteamEngine 5.3.0
M82 ;absolute extrusion mode
;Profil Homepage: https://github.com/NilsRo/Cura_Anycubic_MegaS_Profile

;Slicer Information - (Support for OctoPrint Slicer Estimator)
;Slicer info:material_guid;0ff92885-617b-4144-a03c-9989872454bc
;Slicer info:material_id;generic_pla_175
;Slicer info:material_brand;Generic
;Slicer info:material_name;PLA
;Slicer info:filament_cost;[0.0]
;Slicer info:material_bed_temperature;60
;Slicer info:material_bed_temperature_layer_0;60
;Slicer info:material_print_temperature;200
;Slicer info:material_print_temperature_layer_0;205
;Slicer info:material_flow;100
;Slicer info:layer_height;0.2
;Slicer info:machine_nozzle_size;0.4
;Slicer info:wall_thickness;1.2000000000000002
;Slicer info:speed_print;50.0
;Slicer info:speed_topbottom;25.0
;Slicer info:travel_speed;100.0
;Slicer info:support;0
;Slicer info:retraction_speed;30
;Slicer info:retraction_amount;6
;Slicer info:layer_height;0.2
;Slicer info:infill_pattern;grid
;Slicer info:infill_sparse_density;25
;Slicer info:cool_fan_enabled;True
;Slicer info:cool_fan_speed;100
;Slicer info:sliced_at;Sat 19-08-2023 01:16:49
G21                                        ; metric values 
G90                                        ; absolute positioning 
M82                                        ; set extruder to absolute mode 
M900 K0                                    ; disable lin. adv. if not set in GCODE
M107                                       ; start with the fan off 
M140 S60   ; Start heating the bed 
G4 S60                                     ; wait 1 minute 
M104 S205 ; start heating the hot end 
M190 S60   ; wait for bed 
M109 S205 ; wait for hotend 
M300 S1000 P500                            ; BEEP heating done 
G28 X0 Y10 Z0                              ; move X/Y to min endstops 
M420 S1                                    ; Enable leveling 
M420 Z2.0                                  ; Set leveling fading height to 2 mm 
G0 Z0.15                                   ; lift nozzle a bit 
G92 E0                                     ; zero the extruded length 
G1 X50 E20 F500                            ; Extrude 20mm of filament in a 5cm line. 
G92 E0                                     ; zero the extruded length again 
G1 E-2 F500                                ; Retract a little 
G1 X50 F500                                ; wipe away from the filament line
G1 X100 F9000                              ; Quickly wipe away from the filament line
G92 E0
G92 E0
G1 F1800 E-6
;LAYER_COUNT:33
;LAYER:0
M106 S76.5
M205 X10 Y10
G1 F480 Z0.375
G0 F6000 X27.299 Y67.79 Z0.375
M205 X8 Y8
;TYPE:SKIRT
G1 F480 Z0.3
G1 F1800 E0
G1 F1200 X27.898 Y67.552 E0.03216
G1 X28.522 Y67.391 E0.06431
G1 X29.464 Y67.287 E0.11159
G1 X179.867 Y67.288 E7.61523
G1 X180.565 Y67.298 E7.65005
G1 X181.208 Y67.347 E7.68223
G1 X181.84 Y67.475 E7.7144
G1 X182.451 Y67.681 E7.74656
G1 X183.032 Y67.96 E7.77872
G1 X183.574 Y68.309 E7.81088
G1 X184.068 Y68.723 E7.84304
G1 X184.508 Y69.195 E7.87523
G1 X184.886 Y69.717 E7.90738
G1 X185.196 Y70.282 E7.93954
G1 X185.434 Y70.881 E7.97169
G1 X185.596 Y71.505 E8.00386
G1 X185.7 Y72.451 E8.05134
G1 X185.7 Y73.819 E8.11959
G1 X185.69 Y74.548 E8.15596
G1 X185.642 Y75.33 E8.19505
G1 X185.479 Y77.248 E8.29108
G1 X185.326 Y79.958 E8.4265
G1 X185.25 Y82.632 E8.55996
G1 X185.25 Y85.309 E8.69352
G1 X185.326 Y87.984 E8.82703
G1 X185.479 Y90.684 E8.96195
G1 X185.674 Y93.082 E9.08198
G1 X185.7 Y93.816 E9.11862
G1 X185.699 Y94.834 E9.16941
G1 X185.687 Y95.729 E9.21406
G1 X185.48 Y98.232 E9.33937
G1 X185.326 Y100.958 E9.47558
G1 X185.25 Y103.632 E9.60904
G1 X185.25 Y106.309 E9.7426
G1 X185.326 Y108.984 E9.87611
G1 X185.479 Y111.684 E10.01103
G1 X185.674 Y114.082 E10.13106
G1 X185.7 Y114.816 E10.1677
G1 X185.699 Y115.834 E10.21849
G1 X185.687 Y116.729 E10.26315
G1 X185.48 Y119.232 E10.38845
G1 X185.326 Y121.958 E10.52467
G1 X185.25 Y124.632 E10.65813
G1 X185.25 Y127.309 E10.79168
G1 X185.326 Y129.984 E10.92519
G1 X185.479 Y132.684 E11.06011
G1 X185.674 Y135.082 E11.18014
G1 X185.7 Y135.816 E11.21679
G1 X185.7 Y136.823 E11.26703
G1 X185.69 Y137.55 E11.3033
G1 X185.641 Y138.192 E11.33542
G1 X185.513 Y138.824 E11.36759
G1 X185.308 Y139.435 E11.39975
G1 X185.028 Y140.016 E11.43192
G1 X184.679 Y140.558 E11.46408
G1 X184.266 Y141.053 E11.49625
G1 X183.795 Y141.493 E11.5284
G1 X183.272 Y141.871 E11.5606
G1 X182.707 Y142.181 E11.59275
G1 X182.108 Y142.42 E11.62492
G1 X181.485 Y142.582 E11.65704
G1 X180.537 Y142.687 E11.70462
G1 X30.14 Y142.687 E19.20796
G1 X29.442 Y142.678 E19.24279
G1 X28.799 Y142.629 E19.27496
G1 X28.167 Y142.502 E19.30712
G1 X27.556 Y142.297 E19.33927
G1 X26.975 Y142.019 E19.37141
G1 X26.432 Y141.67 E19.40361
G1 X25.937 Y141.257 E19.43577
G1 X25.497 Y140.786 E19.46793
G1 X25.118 Y140.264 E19.50011
G1 X24.807 Y139.7 E19.53225
G1 X24.569 Y139.101 E19.5644
G1 X24.406 Y138.477 E19.59658
G1 X24.3 Y137.515 E19.64486
G1 X24.301 Y136.083 E19.71631
G1 X24.315 Y135.144 E19.76316
G1 X24.521 Y132.726 E19.88423
G1 X24.674 Y130.016 E20.01965
G1 X24.75 Y127.342 E20.15311
G1 X24.75 Y124.665 E20.28666
G1 X24.674 Y121.99 E20.42017
G1 X24.521 Y119.29 E20.55509
G1 X24.326 Y116.892 E20.67513
G1 X24.3 Y116.158 E20.71177
G1 X24.301 Y115.12 E20.76355
G1 X24.314 Y114.245 E20.80721
G1 X24.52 Y111.738 E20.93271
G1 X24.674 Y109.016 E21.06873
G1 X24.75 Y106.342 E21.20219
G1 X24.75 Y103.665 E21.33574
G1 X24.674 Y100.99 E21.46925
G1 X24.521 Y98.29 E21.60417
G1 X24.326 Y95.892 E21.7242
G1 X24.3 Y95.158 E21.76085
G1 X24.301 Y94.12 E21.81263
G1 X24.314 Y93.245 E21.85629
G1 X24.52 Y90.738 E21.98179
G1 X24.674 Y88.016 E22.11781
G1 X24.75 Y85.342 E22.25127
G1 X24.75 Y82.665 E22.38482
G1 X24.674 Y79.99 E22.51833
G1 X24.521 Y77.29 E22.65325
G1 X24.326 Y74.892 E22.77328
G1 X24.3 Y74.158 E22.80993
G1 X24.301 Y73.083 E22.86356
G1 X24.311 Y72.418 E22.89674
G1 X24.36 Y71.775 E22.92891
G1 X24.489 Y71.143 E22.96109
G1 X24.695 Y70.532 E22.99326
G1 X24.975 Y69.952 E23.02539
G1 X25.325 Y69.41 E23.05758
G1 X25.739 Y68.916 E23.08974
G1 X26.211 Y68.477 E23.1219
G1 X26.733 Y68.099 E23.15405
G1 X27.299 Y67.79 E23.18622
M205 X10 Y10
G0 F6000 X27.151 Y67.418
M205 X8 Y8
G1 F1200 X27.75 Y67.18 E23.21838
G1 X28.478 Y66.993 E23.25588
G1 X29.42 Y66.889 E23.30316
G1 X179.873 Y66.888 E30.80929
G1 X180.595 Y66.899 E30.84532
G1 X181.238 Y66.948 E30.87749
G1 X181.968 Y67.096 E30.91465
G1 X182.624 Y67.32 E30.94923
G1 X183.205 Y67.599 E30.98139
G1 X183.831 Y68.002 E31.01853
G1 X184.361 Y68.45 E31.05315
G1 X184.801 Y68.922 E31.08535
G1 X185.21 Y69.482 E31.11994
G1 X185.568 Y70.134 E31.15705
G1 X185.806 Y70.733 E31.18921
G1 X185.994 Y71.461 E31.22672
G1 X186.098 Y72.407 E31.2742
G1 X186.1 Y73.824 E31.3449
G1 X186.089 Y74.573 E31.38227
G1 X186.041 Y75.364 E31.4218
G1 X185.877 Y77.282 E31.51784
G1 X185.726 Y79.969 E31.65211
G1 X185.65 Y82.643 E31.78557
G1 X185.65 Y85.309 E31.91858
G1 X185.726 Y87.973 E32.05154
G1 X185.878 Y90.652 E32.18541
G1 X186.074 Y93.068 E32.30634
G1 X186.1 Y93.816 E32.34368
G1 X186.099 Y94.839 E32.39472
G1 X186.086 Y95.762 E32.44077
G1 X185.878 Y98.265 E32.56608
G1 X185.726 Y100.969 E32.70119
G1 X185.65 Y103.643 E32.83465
G1 X185.65 Y106.309 E32.96766
G1 X185.726 Y108.973 E33.10062
G1 X185.878 Y111.652 E33.23449
G1 X186.074 Y114.068 E33.35542
G1 X186.1 Y114.816 E33.39276
G1 X186.099 Y115.839 E33.4438
G1 X186.086 Y116.762 E33.48985
G1 X185.878 Y119.265 E33.61516
G1 X185.726 Y121.969 E33.75028
G1 X185.65 Y124.643 E33.88374
G1 X185.65 Y127.309 E34.01674
G1 X185.726 Y129.973 E34.14971
G1 X185.878 Y132.652 E34.28358
G1 X186.074 Y135.068 E34.40451
G1 X186.1 Y135.802 E34.44115
G1 X186.1 Y136.829 E34.49239
G1 X186.089 Y137.58 E34.52986
G1 X186.04 Y138.222 E34.56198
G1 X185.905 Y138.903 E34.59662
G1 X185.668 Y139.609 E34.63377
G1 X185.364 Y140.233 E34.6684
G1 X185.015 Y140.775 E34.70056
G1 X184.573 Y141.309 E34.73515
G1 X184.068 Y141.785 E34.76977
G1 X183.464 Y142.222 E34.80696
G1 X182.855 Y142.553 E34.84154
G1 X182.256 Y142.792 E34.87372
G1 X181.529 Y142.98 E34.91118
G1 X180.581 Y143.085 E34.95877
G1 X30.135 Y143.087 E42.46455
G1 X29.412 Y143.077 E42.50062
G1 X28.769 Y143.028 E42.53279
G1 X28.088 Y142.894 E42.56742
G1 X27.383 Y142.658 E42.60451
G1 X26.802 Y142.38 E42.63665
G1 X26.176 Y141.977 E42.67379
G1 X25.645 Y141.53 E42.70842
G1 X25.173 Y141.021 E42.74305
G1 X24.794 Y140.499 E42.77523
G1 X24.435 Y139.848 E42.81232
G1 X24.197 Y139.249 E42.84448
G1 X24.008 Y138.521 E42.882
G1 X23.902 Y137.559 E42.93029
G1 X23.901 Y136.077 E43.00423
G1 X23.916 Y135.11 E43.05247
G1 X24.123 Y132.692 E43.17355
G1 X24.274 Y130.005 E43.30782
G1 X24.35 Y127.331 E43.44128
G1 X24.35 Y124.665 E43.57428
G1 X24.274 Y122.001 E43.70725
G1 X24.122 Y119.322 E43.84112
G1 X23.926 Y116.906 E43.96205
G1 X23.9 Y116.158 E43.99939
G1 X23.901 Y115.114 E44.05147
G1 X23.915 Y114.212 E44.09648
G1 X24.122 Y111.705 E44.22198
G1 X24.274 Y109.005 E44.3569
G1 X24.35 Y106.331 E44.49036
G1 X24.35 Y103.665 E44.62336
G1 X24.274 Y101.001 E44.75633
G1 X24.122 Y98.322 E44.8902
G1 X23.926 Y95.906 E45.01113
G1 X23.9 Y95.158 E45.04847
G1 X23.901 Y94.114 E45.10055
G1 X23.915 Y93.212 E45.14556
G1 X24.122 Y90.705 E45.27106
G1 X24.274 Y88.005 E45.40598
G1 X24.35 Y85.331 E45.53944
G1 X24.35 Y82.665 E45.67244
G1 X24.274 Y80.001 E45.80541
G1 X24.122 Y77.322 E45.93928
G1 X23.926 Y74.906 E46.06021
G1 X23.9 Y74.158 E46.09755
G1 X23.901 Y73.077 E46.15148
G1 X23.912 Y72.388 E46.18586
G1 X23.968 Y71.695 E46.22054
G1 X24.097 Y71.063 E46.25273
G1 X24.316 Y70.404 E46.28737
G1 X24.639 Y69.735 E46.32443
G1 X25.018 Y69.153 E46.35908
G1 X25.432 Y68.659 E46.39124
G1 X25.976 Y68.153 E46.42831
G1 X26.541 Y67.748 E46.46299
G1 X27.151 Y67.418 E46.49759
M205 X10 Y10
G1 F1800 E40.49759
G1 F480 Z0.375
;MESH:BASE v14.3mf(7)
G0 F6000 X30.5 Y73.487 Z0.375
M205 X8 Y8
;TYPE:WALL-INNER
G1 F480 Z0.3
G1 F1800 E46.49759
G1 F1200 X35 Y73.487 E46.72209
M205 X10 Y10
G1 F1800 E40.72209
G1 F480 Z0.375
G0 F6000 X174.52 Y135.847 Z0.375
M205 X8 Y8
G1 F480 Z0.3
G1 F1800 E46.72209
G1 F1200 X174.401 Y135.54 E46.73852
G1 X174.4 Y116.487 E47.68908
G1 X174.463 Y116.218 E47.70286
G1 X174.731 Y115.95 E47.72177
G1 X174.947 Y115.888 E47.73298
G1 X179.9 Y115.887 E47.98009
G1 X179.9 Y115.087 E48.02
G1 X174.947 Y115.086 E48.26711
G1 X174.731 Y115.024 E48.27832
G1 X174.463 Y114.756 E48.29723
G1 X174.401 Y114.54 E48.30844
G1 X174.4 Y95.487 E49.259
G1 X174.463 Y95.218 E49.27278
G1 X174.731 Y94.95 E49.29169
G1 X174.947 Y94.888 E49.3029
G1 X179.9 Y94.887 E49.55001
G1 X179.9 Y94.087 E49.58992
G1 X174.947 Y94.086 E49.83703
G1 X174.731 Y94.024 E49.84824
G1 X174.463 Y93.756 E49.86715
G1 X174.401 Y93.54 E49.87836
G1 X174.4 Y74.487 E50.82892
G1 X174.52 Y74.127 E50.84785
G1 X174.909 Y73.887 E50.87065
G1 X179.9 Y73.887 E51.11965
G1 X179.9 Y73.087 E51.15957
G1 X30.1 Y73.087 E58.63312
G1 X30.1 Y73.887 E58.67303
G1 X35 Y73.887 E58.91749
G1 X35.48 Y74.127 E58.94427
G1 X35.6 Y74.487 E58.9632
G1 X35.599 Y93.54 E59.91376
G1 X35.537 Y93.756 E59.92497
G1 X35.269 Y94.024 E59.94388
G1 X35 Y94.087 E59.95766
G1 X30.1 Y94.087 E60.20212
G1 X30.1 Y94.887 E60.24203
G1 X35 Y94.887 E60.4865
G1 X35.269 Y94.95 E60.50028
G1 X35.537 Y95.218 E60.51919
G1 X35.6 Y95.487 E60.53297
G1 X35.599 Y114.54 E61.48353
G1 X35.537 Y114.756 E61.49474
G1 X35.269 Y115.024 E61.51365
G1 X35 Y115.087 E61.52743
G1 X30.1 Y115.087 E61.7719
G1 X30.1 Y115.887 E61.81181
G1 X35 Y115.887 E62.05627
G1 X35.269 Y115.95 E62.07005
G1 X35.537 Y116.218 E62.08896
G1 X35.6 Y116.487 E62.10275
G1 X35.599 Y135.54 E63.0533
G1 X35.48 Y135.847 E63.06973
G1 X35.091 Y136.087 E63.09253
G1 X30.1 Y136.087 E63.34154
G1 X30.1 Y136.887 E63.38145
G1 X179.9 Y136.887 E70.855
G1 X179.9 Y136.087 E70.89491
G1 X175 Y136.087 E71.13938
G1 X174.52 Y135.847 E71.16615
M205 X10 Y10
G0 F6000 X174.18 Y136.102
M205 X8 Y8
G1 F1121.5 X174 Y135.574 E71.19593
G1 X173.82 Y136.102 E71.22571
G1 F1108.5 X173.174 Y136.48 E71.26613
G1 X174 Y136.462 E71.31075
G1 F1129.4 X175 Y136.487 E71.36377
G1 X174.18 Y136.102 E71.41179
M205 X10 Y10
G0 F6000 X174 Y135.574
M205 X8 Y8
G1 F1191.1 X174 Y116.487 E72.37119
M205 X10 Y10
G0 F6000 X174.105 Y116.039
M205 X8 Y8
G1 F1200 X174.292 Y115.779 E72.38717
G1 X174.552 Y115.592 E72.40315
G1 F1191.1 X174.913 Y115.487 E72.42204
G1 X174.552 Y115.382 E72.44094
G1 F1200 X174.292 Y115.195 E72.45692
G1 X174.105 Y114.935 E72.4729
G1 F1191.1 X174 Y114.574 E72.49179
G1 X173.895 Y114.935 E72.51069
G1 F1200 X173.708 Y115.195 E72.52667
G1 X173.448 Y115.382 E72.54265
G1 X173 Y115.487 E72.5656
G1 X173.448 Y115.592 E72.58856
G1 X173.708 Y115.779 E72.60454
G1 X173.895 Y116.039 E72.62052
G1 X174 Y116.487 E72.64347
G1 X174.105 Y116.039 E72.66643
M205 X10 Y10
G0 F6000 X174.913 Y115.487
M205 X8 Y8
G1 F1191.1 X179.5 Y115.487 E72.89699
M205 X10 Y10
G1 F1800 E66.89699
G1 F480 Z0.375
G0 F6000 X174 Y114.574 Z0.375
M205 X8 Y8
G1 F480 Z0.3
G1 F1800 E72.89699
G1 F1191.1 X174 Y95.487 E73.85639
M205 X10 Y10
G0 F6000 X174.105 Y95.039
M205 X8 Y8
G1 F1200 X174.292 Y94.779 E73.87237
G1 X174.552 Y94.592 E73.88834
G1 F1191.1 X174.913 Y94.487 E73.90724
G1 X174.552 Y94.382 E73.92614
G1 F1200 X174.292 Y94.195 E73.94212
G1 X174.105 Y93.935 E73.95809
G1 F1191.1 X174 Y93.574 E73.97699
G1 X173.895 Y93.935 E73.99589
G1 F1200 X173.708 Y94.195 E74.01187
G1 X173.448 Y94.382 E74.02785
G1 X173 Y94.487 E74.0508
G1 X173.448 Y94.592 E74.07376
G1 X173.708 Y94.779 E74.08974
G1 X173.895 Y95.039 E74.10571
G1 X174 Y95.487 E74.12867
G1 X174.105 Y95.039 E74.15163
M205 X10 Y10
G0 F6000 X174.913 Y94.487
M205 X8 Y8
G1 F1191.1 X179.5 Y94.487 E74.38219
M205 X10 Y10
G1 F1800 E68.38219
G1 F480 Z0.375
G0 F6000 X174 Y93.574 Z0.375
M205 X8 Y8
G1 F480 Z0.3
G1 F1800 E74.38219
G1 F1191.1 X174 Y74.487 E75.34159
M205 X10 Y10
G0 F6000 X173.48 Y74.127
M205 X8 Y8
G1 F1200 X173.6 Y74.487 E75.36052
G1 X173.599 Y93.54 E76.31108
G1 X173.537 Y93.756 E76.32229
G1 X173.269 Y94.024 E76.3412
G1 X173 Y94.087 E76.35498
G1 X151.947 Y94.086 E77.40532
G1 X151.64 Y93.967 E77.42175
G1 X151.4 Y93.578 E77.44455
G1 X151.4 Y74.487 E78.397
G1 X151.52 Y74.127 E78.41594
G1 X151.909 Y73.887 E78.43874
G1 X173 Y73.887 E79.49097
G1 X173.48 Y74.127 E79.51775
M205 X10 Y10
G0 F6000 X173.82 Y73.872
M205 X8 Y8
G1 F1071.4 X173.958 Y74.127 E79.53395
G1 F1134.8 X174 Y74.487 E79.55307
G1 X174.042 Y74.127 E79.57219
G1 F1071.4 X174.18 Y73.872 E79.58839
G1 F1108.5 X174.826 Y73.494 E79.62882
G1 X174 Y73.512 E79.67344
G1 F1129.4 X173 Y73.487 E79.72646
G1 X173.82 Y73.872 E79.77448
M205 X10 Y10
G0 F6000 X173 Y73.487
M205 X8 Y8
G1 F1200 X152 Y73.487 E80.82217
G1 F1176.5 X151.826 Y73.494 E80.83104
M205 X10 Y10
G0 F6000 X150.82 Y73.872
M205 X8 Y8
G1 F1071.4 X150.958 Y74.127 E80.84724
G1 F1134.8 X151 Y74.487 E80.86636
G1 X151.042 Y74.127 E80.88548
G1 F1071.4 X151.18 Y73.872 E80.90168
G1 F1108.5 X151.826 Y73.494 E80.9421
G1 X151 Y73.512 E80.98672
G1 F1129.4 X150 Y73.487 E81.03975
G1 X150.82 Y73.872 E81.08777
M205 X10 Y10
G0 F6000 X150.48 Y74.127
M205 X8 Y8
G1 F1200 X150.6 Y74.487 E81.1067
G1 X150.599 Y114.54 E83.10495
G1 X150.537 Y114.756 E83.11616
G1 X150.269 Y115.024 E83.13507
G1 X150 Y115.087 E83.14886
G1 X128.947 Y115.086 E84.19919
G1 X128.731 Y115.024 E84.21041
G1 X128.463 Y114.756 E84.22931
G1 X128.401 Y114.54 E84.24053
G1 X128.4 Y74.487 E86.23878
G1 X128.52 Y74.127 E86.25771
G1 X128.909 Y73.887 E86.28051
G1 X150 Y73.887 E87.33275
G1 X150.48 Y74.127 E87.35952
M205 X10 Y10
G0 F6000 X151 Y74.487
M205 X8 Y8
G1 F1200 X151 Y93.487 E88.30744
G1 F1176.5 X151.007 Y93.661 E88.3163
M205 X10 Y10
G0 F6000 X151.385 Y94.667
M205 X8 Y8
G1 F1121.5 X151.913 Y94.487 E88.34608
G1 X151.385 Y94.307 E88.37586
G1 F1108.5 X151.007 Y93.661 E88.41628
G1 X151.025 Y94.487 E88.4609
G1 F1129.4 X151 Y95.487 E88.51392
G1 X151.385 Y94.667 E88.56194
M205 X10 Y10
G0 F6000 X151.64 Y95.007
M205 X8 Y8
G1 F1200 X151.947 Y94.888 E88.57837
G1 X173 Y94.887 E89.62871
G1 X173.269 Y94.95 E89.64249
G1 X173.537 Y95.218 E89.6614
G1 X173.6 Y95.487 E89.67518
G1 X173.599 Y114.54 E90.62574
G1 X173.537 Y114.756 E90.63695
G1 X173.269 Y115.024 E90.65586
